icon-svg/echo-dot-gen-3.svg

<svg xmlns="http://www.w3.org/2000/svg" viewBox="0 0 24 24"><path fill="#44739e" d="M3.691 8.705a1.7 1.7 0 0 1-.923-.642c-.061.278-.099.525.076.642a4.74 4.74 0 0 0 2.2.811 56 56 0 0 0 7.488.726c4.914.013 8.582-1.294 9.045-2.081 0 0-.69.544-3.715 1.095a35.6 35.6 0 0 1-14.171-.551m-.923-.642q.025-.104.046-.213c-.087.047-.09.125-.046.213m11.561 1.313c1.275-.009 9.297-.663 5.851-2.191-2.161-1.008-16.823-1.726-17.128.896 3.061 1.555 9.945 1.295 11.277 1.295m.877-2.26a3.2 3.2 0 0 1 1.942.077c.742.723-3.441.435-1.942-.081Zm-6.294.428c-.427.185-2.987.04-1.786-.428.316-.253 2.789-.092 1.786.424Zm2.254-.739a3.2 3.2 0 0 1 1.825.038c1.254.673-3.398.562-1.825-.042Zm0 1.394c.317-.239 2.798-.111 1.787.427-.46.178-2.977.06-1.787-.426Zm10.799 4.157c-.059-1.214.199-3.302-.388-4.195-.017 1.22-1.283 1.33-2.137 1.593-3.267.832-7.856.814-11.615.544-1.625-.381-4.249-.142-5.322-1.709-.708-.504-.62 5.142-.039 6.174a4.4 4.4 0 0 0 1.321 1.395c3.151 1.903 19.059 3.402 18.18-3.802"/></svg>

<?xml version="1.0" encoding="UTF-8"?>
<svg xmlns="http://www.w3.org/2000/svg" fill="#44739e" width="24" height="24" viewBox="0 0 24 24">
  <path d="M 3.642,8.726 A 1.709,1.709 0 0 1 2.715,8.082 C 2.654,8.361 2.615,8.609 2.791,8.726 A 4.757,4.757 0 0 0 5,9.541 55.627,55.627 0 0 0 12.52,10.27 c 4.934,0.013 8.618,-1.3 9.082,-2.09 0,0 -0.692,0.546 -3.73,1.1 A 35.749,35.749 0 0 1 3.642,8.726 Z M 2.715,8.082 C 2.731,8.012 2.747,7.941 2.761,7.868 2.674,7.915 2.671,7.993 2.715,8.082 Z M 14.324,9.4 C 15.605,9.391 23.66,8.734 20.2,7.2 18.03,6.188 3.306,5.467 3,8.1 6.074,9.661 12.987,9.4 14.324,9.4 Z m 0.881,-2.269 a 3.219,3.219 0 0 1 1.95,0.077 C 17.9,7.934 13.7,7.645 15.205,7.127 Z M 8.885,7.56 C 8.456,7.746 5.885,7.601 7.091,7.131 7.408,6.877 9.892,7.038 8.885,7.556 Z m 2.263,-0.742 a 3.213,3.213 0 0 1 1.833,0.039 C 14.24,7.532 9.568,7.421 11.148,6.814 Z m 0,1.4 c 0.318,-0.24 2.81,-0.111 1.794,0.429 -0.461,0.179 -2.989,0.06 -1.794,-0.428 z m 10.844,4.175 c -0.059,-1.219 0.2,-3.316 -0.39,-4.213 -0.017,1.225 -1.288,1.336 -2.145,1.6 -3.281,0.835 -7.889,0.817 -11.664,0.546 C 6.161,9.943 3.526,10.183 2.449,8.61 1.738,8.104 1.826,13.773 2.41,14.81 a 4.405,4.405 0 0 0 1.326,1.4 c 3.164,1.911 19.139,3.417 18.256,-3.817 z"/>
</svg>
